src/assets/gallery.svg

<svg width="24" height="24" viewBox="0 0 24 24" fill="none" xmlns="http://www.w3.org/2000/svg">
<path d="M9 22H15C20 22 22 20 22 15V9C22 4 20 2 15 2H9C4 2 2 4 2 9V15C2 20 4 22 9 22Z" stroke="#07101B" stroke-width="1.5" stroke-linecap="round" stroke-linejoin="round"/>
<path d="M9 10C10.1046 10 11 9.10457 11 8C11 6.89543 10.1046 6 9 6C7.89543 6 7 6.89543 7 8C7 9.10457 7.89543 10 9 10Z" stroke="#07101B" stroke-width="1.5" stroke-linecap="round" stroke-linejoin="round"/>
<path d="M2.66992 18.95L7.59992 15.64C8.38992 15.11 9.52992 15.17 10.2399 15.78L10.5699 16.07C11.3499 16.74 12.6099 16.74 13.3899 16.07L17.5499 12.5C18.3299 11.83 19.5899 11.83 20.3699 12.5L21.9999 13.9" stroke="#07101B" stroke-width="1.5" stroke-linecap="round" stroke-linejoin="round"/>
</svg>

<svg fill="none" height="24" viewBox="0 0 24 24" width="24" xmlns="http://www.w3.org/2000/svg"><g stroke="#07101b" stroke-linecap="round" stroke-linejoin="round" stroke-width="1.5"><path d="m9 22h6c5 0 7-2 7-7v-6c0-5-2-7-7-7h-6c-5 0-7 2-7 7v6c0 5 2 7 7 7z"/><path d="m9 10c1.1046 0 2-.89543 2-2s-.8954-2-2-2c-1.10457 0-2 .89543-2 2s.89543 2 2 2z"/><path d="m2.66992 18.95 4.93-3.31c.79-.53 1.93-.47 2.63998.14l.33.29c.78.67 2.04.67 2.82 0l4.16-3.57c.78-.67 2.04-.67 2.82 0l1.63 1.4"/></g></svg>
